X: 39356
T: Tam's Auld Love Song
R: waltz
M: 3/4
K: Gmajor
D GA|:B2 d>B c/B/A/G/|EE/F/ G2 FE|DD/E/ GD dB|A3 D GA|
B2 d>B c/B/A/G/|EE/F/ G2 FE|DD/E/ GD B>A|1 G3D GA:|2 G4 AG|
F<A D2 d>c|B<d G2 AG|F<A D2 dc|B3 B A>G|
F<A D2 dc|B<d G2 A>G|[M:2/4]F<A G<E|[M:3/4]D3 D GA||
B2 d>B c/B/A/G/|EE/F/ G2 FE|DD/E/ GD dB|A3 D GA|
B2 d>B c/B/A/G/|EE/F/ G2 FE|DD/E/ GD B>A|G3||

